resources/svg/expand.svg

<svg xmlns="http://www.w3.org/2000/svg" viewBox="0 0 15 15" fill="currentColor"><path fill-rule="evenodd" clip-rule="evenodd" d="M1 1H5V2H2.70711L5.85355 5.14645L5.14645 5.85355L2 2.70711V5H1V1ZM12.2929 2H10V1H14V5H13V2.70711L9.85355 5.85355L9.14645 5.14645L12.2929 2ZM5.85355 9.85355L2.70711 13H5V14H1V10H2V12.2929L5.14645 9.14645L5.85355 9.85355ZM9.85355 9.14645L13 12.2929L13 10L14 10L14 14H10V13H12.2929L9.14645 9.85355L9.85355 9.14645Z" fill="black"/></svg>

<svg xmlns="http://www.w3.org/2000/svg" viewBox="0 0 15 15" fill="currentColor"><path fill-rule="evenodd" clip-rule="evenodd" d="M1 1h4v1H2.707l3.147 3.146-.708.708L2 2.707V5H1V1zm11.293 1H10V1h4v4h-1V2.707L9.854 5.854l-.708-.708L12.293 2zm-6.44 7.854L2.708 13H5v1H1v-4h1v2.293l3.146-3.147.708.708zm4-.708L13 12.293V10h1v4h-4v-1h2.293L9.146 9.854l.708-.708z" fill="currentColor"/></svg>
